contributed-vectors/artstation_alt.svg

<?xml version="1.0" encoding="UTF-8" standalone="no"?>
<svg
   xmlns:dc="http://purl.org/dc/elements/1.1/"
   xmlns:cc="http://creativecommons.org/ns#"
   xmlns:rdf="http://www.w3.org/1999/02/22-rdf-syntax-ns#"
   xmlns:svg="http://www.w3.org/2000/svg"
   xmlns="http://www.w3.org/2000/svg"
   xmlns:sodipodi="http://sodipodi.sourceforge.net/DTD/sodipodi-0.dtd"
   xmlns:inkscape="http://www.inkscape.org/namespaces/inkscape"
   style="isolation:isolate"
   viewBox="0 0 144 144"
   width="192"
   height="192"
   version="1.1"
   id="svg21"
   sodipodi:docname="artstation_alt.svg"
   inkscape:version="1.0.1 (3bc2e813f5, 2020-09-07)"
   inkscape:export-filename="/home/jphilippe/github/delta/android/contributed-vectors/artstation_alt.png"
   inkscape:export-xdpi="96"
   inkscape:export-ydpi="96">
  <metadata
     id="metadata25">
    <rdf:RDF>
      <cc:Work
         rdf:about="">
        <dc:format>image/svg+xml</dc:format>
        <dc:type
           rdf:resource="http://purl.org/dc/dcmitype/StillImage" />
        <dc:title />
      </cc:Work>
    </rdf:RDF>
  </metadata>
  <sodipodi:namedview
     pagecolor="#ffffff"
     bordercolor="#666666"
     borderopacity="1"
     objecttolerance="10"
     gridtolerance="10"
     guidetolerance="10"
     inkscape:pageopacity="0"
     inkscape:pageshadow="2"
     inkscape:window-width="1884"
     inkscape:window-height="1052"
     id="namedview23"
     showgrid="false"
     inkscape:zoom="0.89355095"
     inkscape:cx="-91.63106"
     inkscape:cy="129.30284"
     inkscape:window-x="36"
     inkscape:window-y="0"
     inkscape:window-maximized="1"
     inkscape:current-layer="svg21"
     units="px"
     inkscape:document-rotation="0" />
  <defs
     id="defs5" />
  <g
     id="g874"
     transform="matrix(0.74509804,0,0,0.74509804,0.47058816,0.47058816)">
    <path
       d="m 29.5,19.5 h 133 c 5.519,0 10,4.481 10,10 v 133 c 0,5.519 -4.481,10 -10,10 h -133 c -5.519,0 -10,-4.481 -10,-10 v -133 c 0,-5.519 4.481,-10 10,-10 z"
       style="isolation:isolate;fill:#56595b;fill-opacity:1;stroke:none;stroke-miterlimit:10"
       id="path7" />
    <path
       d="m 61.587,112.413 5.813,10.049 0.002,10e-4 c 1.145,2.268 3.494,3.824 6.207,3.824 l 0.005,-0.001 v 0.001 H 112.2 l -8.007,-13.874 z"
       fill="#9abeff"
       id="path9"
       style="isolation:isolate" />
    <path
       d="m 130.413,112.484 c 0,-1.389 -0.409,-2.682 -1.111,-3.768 L 106.691,69.41 c -1.167,-2.199 -3.479,-3.697 -6.142,-3.697 h -11.95 l 34.926,60.513 5.505,-9.535 c 1.087,-1.826 1.383,-2.635 1.383,-4.207 z"
       fill="#9abeff"
       id="path11"
       style="isolation:isolate" />
    <path
       d="M 98.499,102.555 82.888,75.517 67.278,102.555 Z"
       fill="#9abeff"
       id="path13"
       style="isolation:isolate" />
  </g>
</svg>

<?xml version="1.0" encoding="UTF-8" standalone="no"?><!-- Generator: Gravit.io --><svg xmlns="http://www.w3.org/2000/svg" xmlns:xlink="http://www.w3.org/1999/xlink" style="isolation:isolate" viewBox="0 0 192 192" width="192pt" height="192pt"><defs><clipPath id="_clipPath_o8vwlci7o5E3eQ3E9bXpbu7cXHEJbJOb"><rect width="192" height="192"/></clipPath></defs><g clip-path="url(#_clipPath_o8vwlci7o5E3eQ3E9bXpbu7cXHEJbJOb)"><g style="isolation:isolate"><path d="M 29.5 19.5 L 162.5 19.5 C 168.019 19.5 172.5 23.981 172.5 29.5 L 172.5 162.5 C 172.5 168.019 168.019 172.5 162.5 172.5 L 29.5 172.5 C 23.981 172.5 19.5 168.019 19.5 162.5 L 19.5 29.5 C 19.5 23.981 23.981 19.5 29.5 19.5 Z" style="stroke:none;fill:#4A4A4A;stroke-miterlimit:10;"/><g style="isolation:isolate"><path d=" M 61.587 112.413 L 67.4 122.462 L 67.402 122.463 C 68.547 124.731 70.896 126.287 73.609 126.287 L 73.614 126.286 L 73.614 126.287 L 112.2 126.287 L 104.193 112.413 L 61.587 112.413 Z " fill="rgb(154,190,255)"/><path d=" M 130.413 112.484 C 130.413 111.095 130.004 109.802 129.302 108.716 L 106.691 69.41 C 105.524 67.211 103.212 65.713 100.549 65.713 L 88.599 65.713 L 123.525 126.226 L 129.03 116.691 C 130.117 114.865 130.413 114.056 130.413 112.484 Z " fill="rgb(154,190,255)"/><path d=" M 98.499 102.555 L 82.888 75.517 L 67.278 102.555 L 98.499 102.555 Z " fill="rgb(154,190,255)"/></g></g></g></svg>
